!!!ONR: No. 33
!! From Harold Courlander, "Haiti Singing"
!! Chapel Hill: University of North Carolina Press, 1939
!! Copyright University of North Carolina Press
!!!ENC: D. Huron
**kern
*clefG2
*k[]
*M2/4
=1-
4r
8f
8a
=
8dd
8cc
8dd
8cc
=
8dd
8ff
4cc
=
6a
3f
=
6a
3cc
=
8f
8a
8cc
8a
=
(8dd
8cc)
8a
8a
=
6f
(6g
6f)
=
8a
8cc
4a
=
6g
[3f
=
2f]
==
*-
